X:1
T:Sachsen, 10.7.10.7.10.7 D
T:Sachsen, 10.7.10.7.10.7 D
T:William Fiske Sherwin, 1881
T:Public Domain Courtesy of the Cyber Hymnal™
C:William Fiske Sherwin, 1881
Z:Public Domain
Z:Courtesy of the Cyber Hymnal™
%%score ( 1 2 ) ( 3 4 )
L:1/8
Q:1/4=83
M:6/8
K:A
V:1 treble 
V:2 treble 
V:3 bass 
V:4 bass 
V:1
 [CE]>[^B,^D][CE] [=DF][CE][CA] | [FA][EG][DF] [CE]3 | [Ec]>[EB][EB] [DG][CA][DB] | %3
 [CA]3- [CA]2 z | [CE]>[^B,^D][CE] [=DF][CE][EA] | [FA][EG][DF] [CE]3 | %6
 [Ec]>[EB][EA] [EG][EA][EB] | [EA]3- [EA]2 z | [GB]>[Ac][GB] [GB][EG][FA] | [GB]>[Ac][GB] [GB]3 | %10
 [FA]>[^EG][FA] [Ac][GB][FA] | [EG]3- [EG]2 z | [GB]>[Ac][GB] [GB][EG][FA] | [GB]>[Ac][GB] [GB]3 | %14
 [Ac]>[GB][FA] [EG][FA][^DF] | E3- E2 z | [Ec]>[Ec][Ec] [Ee]>[Ee][Ee] | [CA][CG][FA] [^Ec]3 | %18
 [Ed]>[Ed][Ec] [FB][FB][^DA] | (c3 B3) | [Ac]>[Ac][Ac] [Ge]>[Ge][Ge] | A[EB][=Gc] [Fd]3 | %22
 [Ac]>[EB][EA] [EG][EA][EB] | [EA]3- [EA]2 z |] %24
V:2
 x6 | x6 | x6 | x6 | x6 | x6 | x6 | x6 | x6 | x6 | x6 | x6 | x6 | x6 | x6 | E3- E2 x | x6 | x6 | %18
 x6 | E6 | x6 | A x5 | x6 | x6 |] %24
V:3
 [A,,A,]>[A,,A,][A,,A,] [A,,A,][A,,A,][A,,A,] | [D,A,][D,A,][D,A,] [A,,A,]3 | %2
 [E,A,]>[E,B,][E,C] [E,B,][E,A,][E,G,] | [A,,A,]3- [A,,A,]2 z | A,>A,A, A,A,[A,C] | %5
 [D,D][D,A,][D,A,] [A,,A,]3 | [E,A,]>[E,D][E,C] [E,B,][E,C][E,D] | [A,,C]3- [A,,C]2 z | %8
 [E,B,]3 [E,B,]3 | [E,B,]3 [E,B,]3 | [B,,B,]3 [B,,B,]3 | [E,B,]3- [E,B,]2 z | [E,B,]3 [E,B,]3 | %13
 [E,B,]3 [E,B,]3 | [A,,A,]2 [A,,C] [B,,B,]2 [B,,A,] | [E,G,]3- [E,G,]2 z | %16
 A,>A,A, [G,B,]>[G,B,][G,B,] | [F,A,][F,B,][F,A,] [C,G,]3 | %18
 [B,,G,]>[B,,G,][C,A,] [D,A,][D,A,][F,A,] | (A,3 G,3) | [A,E]>[A,E][A,C] [E,B,]>[E,B,][E,B,] | %21
 [C,A,][B,,G,][A,,A,] [D,A,]3 | [E,E]>[E,D][E,C] [E,B,][E,C][E,D] | [A,,C]3- [A,,C]2 z |] %24
V:4
 x6 | x6 | x6 | x6 | A,>A,A, A,A, x | x6 | x6 | x6 | x6 | x6 | x6 | x6 | x6 | x6 | x6 | x6 | %16
 A,>A,A, x3 | x6 | x6 | E,6 | x6 | x6 | x6 | x6 |] %24

